build/category/FlashLightOutline.svg

<svg xmlns="http://www.w3.org/2000/svg" fill="none" viewBox="0 0 24 24" focusable="false"><path d="M0 0H24V24H0z"/><path fill="#74767B" fill-rule="evenodd" d="M7.1769 3.26935C6.96664 2.97838 6.56032 2.91295 6.26935 3.1232C5.97838 3.33345 5.91295 3.73977 6.1232 4.03074L7.93179 6.53367C8.14205 6.82464 8.54837 6.89008 8.83934 6.67983C9.13031 6.46957 9.19574 6.06325 8.98549 5.77228L7.1769 3.26935ZM17.7075 3.1232C17.4165 2.91295 17.0102 2.97838 16.8 3.26935L14.9914 5.77228C14.7811 6.06325 14.8465 6.46957 15.1375 6.67983C15.4285 6.89008 15.8348 6.82464 16.0451 6.53367L17.8537 4.03074C18.0639 3.73977 17.9985 3.33345 17.7075 3.1232ZM12.6384 3.65005C12.6384 3.29106 12.3474 3.00005 11.9884 3.00005C11.6294 3.00005 11.3384 3.29106 11.3384 3.65005L11.3384 6.15298C11.3384 6.51196 11.6294 6.80298 11.9884 6.80298C12.3474 6.80298 12.6384 6.51196 12.6384 6.15298L12.6384 3.65005ZM16.4688 11.5417L15.247 13.3092L15.2337 13.3092L15.2337 18.025C15.2337 19.6819 13.8905 21.025 12.2337 21.025L11.2501 21.025C9.59329 21.025 8.25014 19.6819 8.25014 18.025L8.25014 13.3092L8.2335 13.3092L7.01208 11.5404C6.66625 11.0395 6.48092 10.4454 6.48072 9.83674L6.48069 9.75589C6.48038 8.81678 7.24159 8.05532 8.18069 8.05532L15.301 8.05532C16.2396 8.05532 17.0007 8.81609 17.001 9.75475L17.001 9.83484C17.0012 10.4447 16.8156 11.04 16.4688 11.5417ZM8.18069 9.35532L15.301 9.35532C15.5218 9.35532 15.7009 9.53433 15.701 9.75519L15.701 9.83527C15.7011 10.1808 15.5959 10.5182 15.3994 10.8025L14.5653 12.0092L8.91565 12.0092L8.08183 10.8017C7.88585 10.5179 7.78084 10.1812 7.78072 9.8363L7.78069 9.75546C7.78062 9.53449 7.95973 9.35532 8.18069 9.35532ZM9.55015 13.3231L13.9337 13.3231L13.9337 18.025C13.9337 18.9639 13.1725 19.725 12.2337 19.725L11.2501 19.725C10.3113 19.725 9.55015 18.9639 9.55015 18.025L9.55015 13.3231ZM11.7414 16.5241C12.2936 16.5241 12.7414 16.0764 12.7414 15.5241C12.7414 14.9718 12.2936 14.5241 11.7414 14.5241C11.1891 14.5241 10.7414 14.9718 10.7414 15.5241C10.7414 16.0764 11.1891 16.5241 11.7414 16.5241Z"/></svg>

<svg xmlns="http://www.w3.org/2000/svg" fill="none" viewBox="0 0 24 24" focusable="false"><path fill="#74767B" fill-rule="evenodd" d="M6.26 3.12c.3-.21.7-.15.91.14l1.81 2.51c.21.29.15.69-.15.9-.29.22-.69.15-.9-.14l-1.81-2.5c-.21-.3-.15-.7.14-.91m11.44 0a.654.654 0 0 0-.91.14l-1.8 2.51c-.21.29-.15.69.14.9.29.22.7.15.91-.14l1.81-2.5c.21-.3.14-.7-.15-.91m-5.07.53c0-.36-.29-.65-.65-.65s-.65.29-.65.65v2.5c0 .36.29.65.65.65s.65-.29.65-.65zm3.83 7.89-1.22 1.76h-.01v4.72c0 1.66-1.34 3-3 3h-.98c-1.66 0-3-1.34-3-3V13.3h-.02l-1.22-1.76c-.35-.51-.53-1.1-.53-1.71v-.08c0-.94.76-1.7 1.7-1.7h7.12c.93 0 1.7.76 1.7 1.7v.08c0 .61-.19 1.21-.54 1.71M8.18 9.35h7.12c.22 0 .4.18.4.4v.08c0 .35-.11.68-.31.97l-.83 1.2H8.91l-.83-1.2c-.2-.29-.3-.62-.3-.97v-.08c0-.22.17-.4.4-.4m1.37 3.97h4.38v4.7c0 .94-.76 1.7-1.7 1.7h-.98c-.94 0-1.7-.76-1.7-1.7zm2.19 3.2c.55 0 1-.45 1-1s-.45-1-1-1c-.56 0-1 .45-1 1s.44 1 1 1"/></svg>
